teams/dark/147.svg

<svg xmlns="http://www.w3.org/2000/svg" viewBox="0 0 300 300"><title>New York Yankees cap on dark logo</title><path fill="#fff" d="M242.52 206v8.03h-2V206h-2.94v-1.76h7.9V206Zm16.33 8.04h-1.99v-7.78h-.05l-2.84 7.78h-1.93l-2.74-7.78h-.06v7.78h-1.98v-9.79h3.45l2.27 6.39h.05l2.36-6.4h3.44v9.79Zm-49.73 43.07c-2.54-36.49-20.09-59.98-48.84-80-.9 19.49-1 36.58-.3 48.54.6 10.35 5.55 16.64 13.63 23.23-10.48 2.39-41.19 1.94-51.66-1.34 1.2-.89 14.15-8.07 15.28-31.46.79-16.81.89-29.22.3-49.73l-1.22-5.26c-14-10.31-26.2-20.92-41.92-37.89 14.38 38.05-3.89 85.37-5.98 102.75-.71 5.84-2.56 17.68-1.96 29.81-4.48-2.7-22.62-14.53-31.29-25.91 25.31-43.29 43.58-85.81 3.89-124.46 7.5-11.24 18.58-21.28 27.41-25.62 9.31 26.8 29.66 48.08 44.35 57.35-11.25-41.65-25.64-55.26-34.76-59.91 5.97-14.02 25.76-28.61 36.25-32.34-4.8 15.57-5.21 25.76-.46 42.38 4.79 16.78 12.29 37.15 20.67 52.43 4.5-7.79 20.38-40.74 24.56-55.12 4.21-14.38 4.21-27.26 2.4-36.56 9.14 4.64 28.76 23.07 33.26 32.06-9.59 2.08-14.08 7-19.77 16.75-5.85 10.05-20.67 47.95-28.91 64.27 8.69 7.5 23.81 16.93 35.79 31.32-13.17-51.84.3-91.24 17.68-103.04 8.09 2.38 18.41 8.97 25.92 16.77-28.17 11.83-26.36 47.78-26.51 50.46-1.28 20.62 7.03 57.25 22.64 66.18 3.39 1.95 3.73 2.08 5.51 2.88-2.99 3.59-20.67 20.99-35.94 31.46l.072-.063z"/></svg>

<svg width="300" height="300" viewBox="0 0 300 300" fill="none" xmlns="http://www.w3.org/2000/svg">
<path d="M209.12 257.11C206.58 220.62 189.03 197.13 160.28 177.11C159.38 196.6 159.28 213.69 159.98 225.65C160.58 236 165.53 242.29 173.61 248.88C163.13 251.27 132.42 250.82 121.95 247.54C123.15 246.65 136.1 239.47 137.23 216.08C138.02 199.27 138.12 186.86 137.53 166.35L136.31 161.09C122.31 150.78 110.11 140.17 94.39 123.2C108.77 161.25 90.5 208.57 88.41 225.95C87.7 231.79 85.85 243.63 86.45 255.76C81.97 253.06 63.83 241.23 55.16 229.85C80.47 186.56 98.74 144.04 59.05 105.39C66.55 94.15 77.63 84.11 86.46 79.77C95.77 106.57 116.12 127.85 130.81 137.12C119.56 95.47 105.17 81.86 96.05 77.21C102.02 63.19 121.81 48.6 132.3 44.87C127.5 60.44 127.09 70.63 131.84 87.25C136.63 104.03 144.13 124.4 152.51 139.68C157.01 131.89 172.89 98.94 177.07 84.56C181.28 70.18 181.28 57.3 179.47 48C188.61 52.64 208.23 71.07 212.73 80.06C203.14 82.14 198.65 87.06 192.96 96.81C187.11 106.86 172.29 144.76 164.05 161.08C172.74 168.58 187.86 178.01 199.84 192.4C186.67 140.56 200.14 101.16 217.52 89.36C225.61 91.74 235.93 98.33 243.44 106.13C215.27 117.96 217.08 153.91 216.93 156.59C215.65 177.21 223.96 213.84 239.57 222.77C242.96 224.72 243.3 224.85 245.08 225.65C242.09 229.24 224.41 246.64 209.14 257.11L209.212 257.047L209.12 257.11Z" fill="white"/>
</svg>
